filter-settings.svg

<svg fill="currentColor" viewBox="0 0 24 24"><path d="M15 22h2v2h-2m-4-2h2v2h-2m-4-2h2v2H7m7-12v7.88c.04.3-.06.62-.29.83a.996.996 0 0 1-1.41 0l-2.01-2.01a.99.99 0 0 1-.29-.83V12h-.03L4.21 4.62a1 1 0 0 1 .17-1.4c.19-.14.4-.22.62-.22h14c.22 0 .43.08.62.22a1 1 0 0 1 .17 1.4L14.03 12Z"/></svg>

<svg  viewBox="0 0 24 24" fill="currentColor"><path  d="M15 22H17V24H15M11 22H13V24H11M7 22H9V24H7M14 12V19.88C14.04 20.18 13.94 20.5 13.71 20.71C13.32 21.1 12.69 21.1 12.3 20.71L10.29 18.7C10.06 18.47 9.96 18.16 10 17.87V12H9.97L4.21 4.62C3.87 4.19 3.95 3.56 4.38 3.22C4.57 3.08 4.78 3 5 3H19C19.22 3 19.43 3.08 19.62 3.22C20.05 3.56 20.13 4.19 19.79 4.62L14.03 12Z"/></svg>
